public/icons/github.svg

<svg width="67" height="19" viewBox="0 0 67 19" fill="none" xmlns="http://www.w3.org/2000/svg">
<path d="M12.9359 8.2118H7.30729C7.15868 8.2118 7.04722 8.32222 7.04722 8.46944V11.193C7.04722 11.3403 7.15868 11.4507 7.30729 11.4507H9.49931V14.8368C9.49931 14.8368 8.99774 15.0024 7.64167 15.0024C6.0441 15.0024 3.79636 14.4135 3.79636 9.5368C3.79636 4.64166 6.13698 3.99756 8.32899 3.99756C10.2238 3.99756 11.0411 4.32881 11.5613 4.49444C11.7285 4.54965 11.8771 4.38402 11.8771 4.2368L12.5087 1.6052C12.5087 1.53159 12.4901 1.45798 12.4158 1.40277C12.2115 1.25555 10.9111 0.537842 7.66024 0.537842C3.90781 0.537842 0.0625 2.12048 0.0625 9.72083C0.0625 17.3212 4.4651 18.4621 8.18038 18.4621C11.2641 18.4621 13.1217 17.1556 13.1217 17.1556C13.196 17.1187 13.2146 17.0083 13.2146 16.9531V8.45104C13.196 8.32222 13.0845 8.2118 12.9359 8.2118Z" fill="white"/>
<path d="M41.9148 1.43952C41.9148 1.2923 41.8033 1.18188 41.6547 1.18188H38.4967C38.3481 1.18188 38.2366 1.2923 38.2366 1.43952V7.49404H33.2953V1.43952C33.2953 1.2923 33.1839 1.18188 33.0352 1.18188H29.8773C29.7286 1.18188 29.6172 1.2923 29.6172 1.43952V17.8548C29.6172 18.002 29.7286 18.1124 29.8773 18.1124H33.0352C33.1839 18.1124 33.2953 18.002 33.2953 17.8548V10.8433H38.2366V17.8548C38.2366 18.002 38.3481 18.1124 38.4967 18.1124H41.6733C41.8219 18.1124 41.9333 18.002 41.9333 17.8548V1.43952H41.9148Z" fill="white"/>
<path d="M18.8993 3.61107C18.8993 2.4885 17.9891 1.56836 16.8559 1.56836C15.7227 1.56836 14.8125 2.4885 14.8125 3.61107C14.8125 4.73364 15.7227 5.65378 16.8559 5.65378C17.9891 5.65378 18.8993 4.73364 18.8993 3.61107Z" fill="white"/>
<path d="M18.6772 14.3951C18.6772 13.9719 18.6772 6.81318 18.6772 6.81318C18.6772 6.66596 18.5657 6.55554 18.4171 6.55554H15.2591C15.1105 6.55554 14.9805 6.70277 14.9805 6.84999C14.9805 6.84999 14.9805 15.9594 14.9805 17.7076C14.9805 18.0205 15.1848 18.1125 15.4449 18.1125C15.4449 18.1125 16.801 18.1125 18.2871 18.1125C18.6029 18.1125 18.6772 17.9653 18.6772 17.6892C18.6772 17.1187 18.6772 14.8368 18.6772 14.3951Z" fill="white"/>
<path d="M53.9341 6.59241H50.7947C50.6461 6.59241 50.5346 6.70283 50.5346 6.85005V14.8921C50.5346 14.8921 49.7358 15.4625 48.6027 15.4625C47.4695 15.4625 47.1723 14.9473 47.1723 13.8615C47.1723 12.7573 47.1723 6.85005 47.1723 6.85005C47.1723 6.70283 47.0609 6.59241 46.9122 6.59241H43.7171C43.5685 6.59241 43.457 6.70283 43.457 6.85005C43.457 6.85005 43.457 11.1379 43.457 14.3952C43.457 17.6525 45.2961 18.4622 47.8225 18.4622C49.903 18.4622 51.5563 17.3212 51.5563 17.3212C51.5563 17.3212 51.6306 17.9101 51.6678 17.9837C51.7049 18.0573 51.7978 18.1309 51.8907 18.1309H53.9155C54.0641 18.1309 54.1756 18.0205 54.1756 17.8733V6.85005C54.1942 6.70283 54.0827 6.59241 53.9341 6.59241Z" fill="white"/>
<path d="M62.5352 6.22428C60.7518 6.22428 59.5444 7.0156 59.5444 7.0156V1.45796C59.5444 1.31073 59.4329 1.20032 59.2843 1.20032H56.1077C55.9591 1.20032 55.8477 1.31073 55.8477 1.45796V17.8732C55.8477 18.0205 55.9591 18.1309 56.1077 18.1309H58.3183C58.4112 18.1309 58.4855 18.0757 58.5412 17.9837C58.597 17.8916 58.6713 17.2291 58.6713 17.2291C58.6713 17.2291 59.9716 18.4437 62.4237 18.4437C65.303 18.4437 66.9563 16.9899 66.9563 11.9291C66.9563 6.88678 64.3185 6.22428 62.5352 6.22428ZM61.2905 15.4625C60.1945 15.4257 59.4701 14.9472 59.4701 14.9472V9.75761C59.4701 9.75761 60.1945 9.31594 61.0862 9.24233C62.2194 9.15032 63.3154 9.48157 63.3154 12.15C63.2968 14.9472 62.8138 15.5177 61.2905 15.4625Z" fill="white"/>
<path d="M27.7788 6.55557H25.401V3.4455C25.401 3.33509 25.3453 3.26147 25.1967 3.26147H21.9644C21.8343 3.26147 21.7786 3.31668 21.7786 3.4271V6.64759C21.7786 6.64759 20.1625 7.03405 20.051 7.07085C19.9395 7.10766 19.8652 7.19967 19.8652 7.32849V9.35279C19.8652 9.50002 19.9767 9.61044 20.1253 9.61044H21.7786C21.7786 9.61044 21.7786 11.7268 21.7786 14.4688C21.7786 18.0757 24.3236 18.4254 26.0512 18.4254C26.8314 18.4254 27.7788 18.1677 27.9274 18.1125C28.0203 18.0757 28.076 17.9837 28.076 17.8733V15.6465C28.076 15.4993 27.946 15.3889 27.8159 15.3889C27.6859 15.3889 27.3144 15.4441 26.9614 15.4441C25.7911 15.4441 25.401 14.9104 25.401 14.2111C25.401 13.5118 25.401 9.59203 25.401 9.59203H27.7788C27.9274 9.59203 28.0388 9.48162 28.0388 9.33439V6.81321C28.0388 6.68439 27.9274 6.55557 27.7788 6.55557Z" fill="white"/>
</svg>

<svg width="67" height="19" fill="none" xmlns="http://www.w3.org/2000/svg"><path d="M12.936 8.212H7.307c-.148 0-.26.11-.26.257v2.724c0 .147.112.258.26.258H9.5v3.386s-.501.165-1.857.165c-1.598 0-3.846-.588-3.846-5.465 0-4.895 2.341-5.54 4.533-5.54 1.895 0 2.712.332 3.232.497.168.056.316-.11.316-.257l.632-2.632c0-.073-.019-.147-.093-.202C12.21 1.256 10.91.538 7.66.538 3.908.538.062 2.12.062 9.72c0 7.6 4.403 8.741 8.118 8.741 3.084 0 4.942-1.306 4.942-1.306.074-.037.093-.148.093-.203V8.451a.28.28 0 0 0-.28-.24ZM41.915 1.44a.253.253 0 0 0-.26-.258h-3.158c-.149 0-.26.11-.26.258v6.054h-4.942V1.44a.253.253 0 0 0-.26-.258h-3.158c-.148 0-.26.11-.26.258v16.415c0 .147.112.257.26.257h3.158c.149 0 .26-.11.26-.257v-7.012h4.942v7.012c0 .147.111.257.26.257h3.176c.149 0 .26-.11.26-.257V1.44h-.018ZM18.9 3.611a2.044 2.044 0 1 0-4.088.002 2.044 2.044 0 0 0 4.087-.002ZM18.677 14.395V6.813a.253.253 0 0 0-.26-.257H15.26c-.149 0-.279.147-.279.294v10.858c0 .313.205.405.465.405h2.842c.316 0 .39-.148.39-.424v-3.294ZM53.934 6.592h-3.14c-.148 0-.26.11-.26.258v8.042s-.798.57-1.931.57c-1.134 0-1.43-.515-1.43-1.6V6.85a.253.253 0 0 0-.26-.258h-3.196c-.148 0-.26.11-.26.258v7.545c0 3.258 1.84 4.067 4.365 4.067 2.081 0 3.734-1.14 3.734-1.14s.075.588.112.662c.037.073.13.147.223.147h2.025c.148 0 .26-.11.26-.258V6.85c.018-.147-.093-.258-.242-.258ZM62.535 6.224c-1.783 0-2.99.792-2.99.792V1.458a.253.253 0 0 0-.26-.258h-3.177c-.149 0-.26.11-.26.258v16.415c0 .147.111.258.26.258h2.21c.093 0 .168-.055.223-.147.056-.092.13-.755.13-.755s1.3 1.215 3.753 1.215c2.879 0 4.532-1.454 4.532-6.515 0-5.042-2.638-5.705-4.42-5.705Zm-1.244 9.239c-1.096-.037-1.82-.516-1.82-.516v-5.19s.724-.441 1.615-.515c1.133-.092 2.23.24 2.23 2.908-.02 2.797-.502 3.368-2.026 3.313ZM27.779 6.556H25.4v-3.11c0-.11-.056-.185-.204-.185h-3.233c-.13 0-.185.056-.185.166v3.22s-1.616.387-1.728.424a.26.26 0 0 0-.186.257v2.025c0 .147.112.257.26.257h1.654v4.859c0 3.607 2.545 3.956 4.272 3.956.78 0 1.728-.257 1.876-.313.093-.036.149-.128.149-.239v-2.227a.264.264 0 0 0-.26-.257c-.13 0-.502.055-.855.055-1.17 0-1.56-.534-1.56-1.233V9.592h2.378c.148 0 .26-.11.26-.258v-2.52a.264.264 0 0 0-.26-.258Z" fill="#fff"/></svg>
